!!!SOCIAL_FUNCTION:	dream songs
!!!PDT:	1932
!!!OTL: No_46_Dream_Song.krn
!!!REG: Wisconsin
!!!LANG: Non-Tone
!!!LING_GROUP: Algonquin
**kern
*staff1
=1-
*clefF4
*k[f#c#g#d#a#]
*M2/4
4r
8r
16r
16c#\
=2
8.c#\L
16B\Jk
4c#\
=3
4c#\
8.r
16c#\
=4
4.B\
8B\
=5
4B\
(8.B\L
16G#\Jk)
=6||
*M3/4
2G#\
8.r
16c#\
=7||
*M2/4
8.c#\L
16B\Jk
4c#\
=8
2B\
=9
8r
8B\
4G#\
=10||
*M3/4
4F#\
8r
8G#\
(4G#\
=11
4F#\)
[2F#\
=12||
*M2/4
4F#\]
8r
8B\
=13
4..B\
16F#\
=14
4F#\
8F#\
8r
=15||
*M3/4
8F#\L
8F#\J
8.r
16G#\
4F#\
=16||
*M2/4
(4F#\
8D#\)
16r
16F#\
=17
8.F#\L
16D#\Jk
4F#\
=18||
*M3/4
4F#\
8r
8F#\
4D#\
=19||
*M2/4
8BB/
16r
16C#/
4C#/
=20
4BB/
[4BB/
=21||
*M3/4
2BB/]
8r
16r
16c#\
=22
(8.c#\L
16B\Jk)
4B\
8B\
8r
=23
8B\L
8B\J
8.r
16B\
4B\
=24||
*M2/4
(4B\
8G#\)
16r
16B\
=25
8.B\L
16B\Jk
(4c#\
=26
2B\)
=27
8r
8B\
4G#\
=28||
*M3/4
4F#\
8r
8G#\
(4G#\
=29||
*M2/4
4F#\)
[4F#\
=30
4F#\]
8.r
16B\
=31
4..B\
16F#\
=32
4F#\
8F#\
8r
=33||
*M3/4
8F#\L
8F#\J
8.r
16G#\
4F#\
=34||
*M2/4
(4F#\
8D#\)
16r
16F#\
=35
8.F#\L
16F#\Jk
4G#\
=36
4F#\
4r
=37
8r
8D#\
4D#\
=38
8BB/
16r
16C#/
4C#/
=39
4BB/
[4BB/
=40
2BB/]
==
*-
